svg/window_shutter_settings.svg

<svg xmlns="http://www.w3.org/2000/svg" viewBox="0 0 24 24"><path d="M3 4h18v4h-2v12h-2V8H7v12H5V8H3zm5 5h8v2H8zm0 3h8v2H8zm0 3h8v2H8zm0 3h8v2H8zm5 4h-2v2h2zm4 0h-2v2h2zm-8 0H7v2h2z"/></svg>

<svg xmlns="http://www.w3.org/2000/svg" id="mdi-window-shutter-settings" viewBox="0 0 24 24"><path d="M3 4H21V8H19V20H17V8H7V20H5V8H3V4M8 9H16V11H8V9M8 12H16V14H8V12M8 15H16V17H8V15M8 18H16V20H8V18M13 22H11V24H13V22M17 22H15V24H17V22M9 22H7V24H9V22Z" /></svg>
